!!!!SEGMENT: Ver3009-Madonna_quando_io_vodo_cantar.krn
!!!id: Ver3009
!!!AGN: Madrigal
!!!SCT: Gallico (1961)
!!!voices: 4
!!!COM: Philippe Verdelot
!!!OTL: Madonna quando io v'odo cantar
**kern	**kern	**kern	**kern
*part4	*part3	*part2	*part1
*staff4	*staff3	*staff2	*staff1
*I"Bassus	*I"Tenor	*I"Altus	*I"Superius
*I'B	*I'T	*I'A	*I'S
*clefF4	*clefGv2	*clefGv2	*clefG2
*k[]	*k[]	*k[]	*k[]
*C:	*C:	*C:	*C:
*M2/1	*M2/1	*M2/1	*M2/1
*met(C|)	*met(C|)	*met(C|)	*met(C|)
=1	=1	=1	=1
1r	0r	2r	1a
.	.	2A	.
2r	.	1d	[1a
2D	.	.	.
=2	=2	=2	=2
1F	2r	2c	1a]
.	2A	2c	.
1D	1d	1f	1a
=3	=3	=3	=3
2r	2c	2e	2r
1A	1e	1a	1cc
2F	2f	2a	2cc
=4	=4	=4	=4
1G	1d	1g	1b
2A	2c	2e	2a
2A	2c	2a	2cc
=5	=5	=5	=5
2F	2.f	2a	2cc
2F	.	2a	2cc
.	4e	.	.
2G	2d	2g	2b
2A	2c	2f	2a
=6	=6	=6	=6
2E	2B	2e	2g#X
2E	2B	2e	2g#i
2r	2r	2r	2r
2E	2e	2B	2g#i
=7	=7	=7	=7
2.D	1.f	1d	1.a
4E	.	.	.
2F	.	1c	.
2C	2e	.	2g
=8	=8	=8	=8
2F	2.f	2c	2a
2F	.	2c	2cc
.	4e	.	.
2G	2.d	2g	2b
2D	.	2f	2a
.	4c	.	.
=9	=9	=9	=9
2E	2B	2e	2a
2E	2B	2e	2g
2AA	2A	2c	2a
2AA	2A	2c	2a
=10	=10	=10	=10
2r	2r	2r	2r
2A	2c	2e	2a
2F	2A	2f	2a
2G	2B	2e	2g
=11	=11	=11	=11
2F	2c	2f	2a
2D	2d	2f	2b
4C	1e	1g	1cc
4D	.	.	.
4E	.	.	.
4F	.	.	.
=12	=12	=12	=12
1G	1d	1g	1b
2C	2r	2r	2r
[2C	[2c	[2e	[2g
=13	=13	=13	=13
2C]	2c]	2e]	2g]
2C	2c	2e	2g
1F	1c	1f	1a
=14	=14	=14	=14
2C	2c	2e	2g
2C	2e	2.c	2g
2C	2e	.	2g
.	.	4B	.
2D	[2d	[2A	2f
=15	=15	=15	=15
1E	4d]	2A]	1g
.	8cL	.	.
.	8BJ	.	.
.	2c	2G	.
1D	1d	1A	1f#X
=16	=16	=16	=16
1.B-X	2r	2G	2r
.	1G	1d	1g
2A	2A	2c	2f
=17	=17	=17	=17
2G	2B	2d	2g
2F	1d	2d	2a
1E-X	.	1G	2b-X
.	2c	.	4a
.	.	.	4g
=18	=18	=18	=18
1D	1d	1A	1f
2r	2r	2r	2r
2C	2e	[2c	2g
=19	=19	=19	=19
1G	1d	2c]	1g
.	.	2B	.
2C	2e	2c	2g
[2G	[2d	[2B	[2g
=20	=20	=20	=20
2G]	2d]	2B]	2g]
2C	2e	2c	2g
1D	1d	1A	1f
=21	=21	=21	=21
1E	2B	1G	0e
.	2B	.	.
2r	[1c	2r	.
2E	.	2G	.
=22	=22	=22	=22
1.F	2c]	2.A	2r
.	2B	.	2a
.	.	4B	.
.	2A	4c	2f
.	.	4A	.
2E	2G	[2B	2g
=23	=23	=23	=23
2D	2F	4B]	2a
.	.	4A	.
2C	2E	1A	2a
1BB	1D	.	1dd
.	.	2G	.
=24	=24	=24	=24
0AA	1E	0A	1cc#X
.	2r	.	2r
.	2e	.	2a
=25	=25	=25	=25
0r	2.f	1r	2a
.	.	.	2a
.	4e	.	.
.	2d	2r	2a
.	2c	2e	2a
=26	=26	=26	=26
0r	2.d	2.f	1a
.	4c	4e	.
.	2B	2d	2g
.	2A	2c	[2a
=27	=27	=27	=27
2r	1B	2d	2a]
2E	.	2e	2g
2.F	[1A	4c	2a
.	.	4B	.
.	.	4A	2a
4E	.	4G	.
=28	=28	=28	=28
2D	1A]	4F	2r
.	.	4G	.
2C	.	1A	2e
2.D	1r	.	2.f
.	.	2F	.
4C	.	.	4e
=29	=29	=29	=29
2BB	1r	2G	2d
2AA	.	2.A	2c
1BB	2r	.	2.d
.	.	8G#iL	.
.	.	8F#iJ	.
.	4D	2G#i	.
.	4E	.	4c
=30	=30	=30	=30
1AA	4F	1A	2c
.	4G	.	.
.	2.A	.	2A
1r	.	1E	1B
.	8G#iL	.	.
.	8F#iJ	.	.
.	2G#i	.	.
=31	=31	=31	=31
2r	1A	2r	1A
2AA	.	2c	.
2D	1r	2A	1r
2D	.	2B	.
=32	=32	=32	=32
2C	0r	4c	0r
.	.	4B	.
2C	.	4A	.
.	.	4G	.
2.F	.	2A	.
.	.	[2c	.
4E	.	.	.
=33	=33	=33	=33
2D	2r	4c]	2r
.	.	4B	.
2C	2e	2.A	2cc
2D	2f	.	2a
.	.	8GL	.
.	.	8FJ	.
2BB	2d	2G	2b
=34	=34	=34	=34
2AA	2c	1A	4cc
.	.	.	4b
2AA	2c	.	4a
.	.	.	4g
1r	2.f	1r	2a
.	.	.	2cc
.	4e	.	.
=35	=35	=35	=35
0r	2d	2r	2b
.	2c	2e	2.a
.	2d	2f	.
.	.	.	8g#iL
.	.	.	8f#iJ
.	2B	2d	2g#i
=36	=36	=36	=36
1r	2A	2c	1a
.	2A	2c	.
2r	2r	2f	2r
2A	2e	2c	2cc
=37	=37	=37	=37
2F	2f	2d	2a
2G	2d	2B	2b
2A	2c	1A	4cc
.	.	.	4b
2F	2c	.	4a
.	.	.	4g
=38	=38	=38	=38
2F	2.f	1A	2a
2F	.	.	2cc
.	4e	.	.
2G	2d	2r	2b
2A	2c	2e	[2a
=39	=39	=39	=39
2D	2d	2f	4a]
.	.	.	8g#iL
.	.	.	8f#iJ
2E	2B	2e	2g#i
2.F	1A	2c	[1al
.	.	2c	.
4E	.	.	.
=40	=40	=40	=40
2D	1A	2.f	0a_
2C	.	.	.
.	.	4e	.
2D	2r	2d	.
[2F	[2A	2c	.
=41	=41	=41	=41
4F]	4A]	2d	0a_
4E	4G	.	.
1D	4F	1f	.
.	4E	.	.
.	2D	.	.
2C	2E	2e	.
=42	=42	=42	=42
1D	1F	1d	0a_
[1AAl	[1El	[1cl	.
=43	=43	=43	=43
00AA]	00E]	00c]	00a]
==	==	==	==
*-	*-	*-	*-
!!!system-decoration: [*]
!!!RDF**kern: i = editorial accidental
!!!RDF**kern: l = terminal long
!!!ENC: Benjamin Ory
!!!END: 2022/3/24
!!!EED: Benjamin Ory
!!!EEV: 2022/03/24
!!!YEC: Copyright 2022 Benjamin Ory, All Rights Reserved
!!!ONB: Translated from MusicXML on 2022/03/24
